public/library/paris-blockchain-week-text-light.svg

<svg width="140" height="36" viewBox="0 0 140 36" fill="none" xmlns="http://www.w3.org/2000/svg">
<path d="M133.29 23.3035H135.512V28.1915H135.957L137.043 23.3035H139.413L137.833 29.0309L139.413 35.1038H137.043L135.957 29.969H135.512V35.1038H133.29V23.3035Z" fill="#1A1E27"/>
<path d="M127.464 23.3035H132.352V25.3278H129.637V28.2409H131.71V30.0677H129.637V33.1783H132.352V35.1532H127.464V23.3035Z" fill="#1A1E27"/>
<path d="M121.589 23.3035H126.477V25.3278H123.761V28.2409H125.835V30.0677H123.761V33.1783H126.477V35.1532H121.589V23.3035Z" fill="#1A1E27"/>
<path d="M111.072 23.3035H113.245L114.134 30.9071L115.022 23.3035H116.948L117.837 30.9071L118.725 23.3035H120.898L119.022 35.1038H116.75L115.911 27.7965L115.072 35.1038H112.801L111.072 23.3035Z" fill="#1A1E27"/>
<path d="M101.287 23.4605H103.361L104.941 29.336V23.4605H107.162V35.2609H105.089L103.509 29.5829V35.2609H101.287V23.4605Z" fill="#1A1E27"/>
<path d="M97.7816 23.4605H99.954V35.2609H97.7816V23.4605Z" fill="#1A1E27"/>
<path d="M92.6469 23.4605H95.0169L97.2387 35.2609H95.0662L94.7206 33.2859H92.9432L92.5976 35.2609H90.4251L92.6469 23.4605ZM94.4244 31.5084L93.8319 27.0648L93.19 31.5084H94.4244Z" fill="#1A1E27"/>
<path d="M84.0552 23.4605H86.2771V28.3485H87.6102V23.4605H89.7826V35.2609H87.6102V30.1754H86.2771V35.2609H84.0552V23.4605Z" fill="#1A1E27"/>
<path d="M70.8729 23.4605H73.0947V28.3485H73.5391L74.6253 23.4605H76.9952L75.4646 29.1879L77.0446 35.2609H74.6746L73.5884 30.126H73.1441V35.2609H70.9222V23.4605H70.8729Z" fill="#1A1E27"/>
<path d="M52.012 23.4605H54.2338V33.2859H56.6532V35.2609H52.0614L52.012 23.4605Z" fill="#1A1E27"/>
<path d="M45.0997 23.4605H47.8153C49.5434 23.4605 50.7283 24.2999 50.7283 25.7811V27.5585C50.7283 28.4473 50.4321 28.9904 49.7902 29.2373C50.4321 29.4841 50.8271 29.9779 50.8271 31.0147V32.9897C50.8271 34.4709 49.6421 35.2609 47.914 35.2609H45.0997V23.4605ZM47.7659 28.4473C48.1115 28.4473 48.6053 28.3979 48.6053 27.8548V25.9786C48.6053 25.4848 48.1609 25.3861 47.7659 25.3861H47.3216V28.4473H47.7659ZM47.8153 33.2859C48.1609 33.2859 48.6546 33.2365 48.6546 32.6934V30.6197C48.6546 30.0766 48.2103 30.0272 47.8153 30.0272H47.3216V33.2859H47.8153Z" fill="#1A1E27"/>
<path d="M57.0976 32.5454V26.2256C57.0976 24.5469 58.2826 23.3619 60.0106 23.3619C61.7387 23.3619 62.9237 24.5469 62.9237 26.2256V32.5454C62.9237 34.2241 61.6894 35.4091 60.0106 35.4091C58.2826 35.4091 57.0976 34.2241 57.0976 32.5454ZM60.0106 33.3848C60.3069 33.3848 60.7019 33.286 60.7019 32.5948V26.1268C60.7019 25.4356 60.3069 25.3369 60.0106 25.3369C59.7144 25.3369 59.27 25.4356 59.27 26.1268V32.6442C59.3194 33.3354 59.7144 33.3848 60.0106 33.3848Z" fill="#1A1E27"/>
<path d="M77.2419 32.5455V26.1763C77.2419 24.4976 78.4269 23.3126 80.155 23.3126C81.8831 23.3126 83.068 24.4976 83.068 26.1763V26.9169H80.8956V26.1269C80.8956 25.4357 80.5006 25.3369 80.2044 25.3369C79.9081 25.3369 79.4638 25.4357 79.4638 26.1269V32.6442C79.4638 33.3849 79.8588 33.4342 80.2044 33.4342C80.55 33.4342 80.8956 33.3849 80.8956 32.6442V31.8049H83.1174V32.5949C83.1174 34.2736 81.8831 35.4586 80.2044 35.4586C78.4763 35.4092 77.2419 34.2242 77.2419 32.5455Z" fill="#1A1E27"/>
<path d="M64.0592 32.5455V26.1763C64.0592 24.4976 65.2442 23.3126 66.9723 23.3126C68.7003 23.3126 69.8853 24.4976 69.8853 26.1763V26.9169H67.6635V26.1269C67.6635 25.4357 67.2685 25.3369 66.9723 25.3369C66.676 25.3369 66.2317 25.4357 66.2317 26.1269V32.6442C66.2317 33.3849 66.6266 33.4342 66.9723 33.4342C67.3179 33.4342 67.6635 33.3849 67.6635 32.6442V31.8049H69.8853V32.5949C69.8853 34.2736 68.651 35.4586 66.9723 35.4586C65.2442 35.4092 64.0592 34.2242 64.0592 32.5455Z" fill="#1A1E27"/>
<path d="M65.1948 9.32115H67.3672V21.2287H65.1948V9.32115Z" fill="#1A1E27"/>
<path d="M58.2332 9.42811H61.0969C62.825 9.42811 64.01 10.5143 64.01 12.5387V15.2542C64.01 16.4392 63.615 17.2785 62.8744 17.8217L64.0593 21.2778H61.6894L60.8994 18.4141H60.455V21.2778H58.2332V9.42811ZM60.85 16.3898C61.2944 16.3898 61.8869 16.2911 61.8869 15.2542V12.4893C61.8869 11.5018 61.3438 11.3537 60.85 11.3537H60.455V16.3404H60.85V16.3898Z" fill="#1A1E27"/>
<path d="M53.0985 9.42811H55.4685L57.6903 21.2285H55.5179L55.2216 19.2535H53.4441L53.0985 21.2285H50.9261L53.0985 9.42811ZM54.876 17.476L54.2835 12.983L53.6416 17.476H54.876Z" fill="#1A1E27"/>
<path d="M45.0997 9.42811H47.9634C49.6915 9.42811 50.8765 10.5143 50.8765 12.5387V15.353C50.8765 17.3279 49.6915 18.4141 47.9634 18.4141H47.3216V21.2778H45.0997V9.42811ZM47.7165 16.3898C48.1609 16.3898 48.7534 16.2911 48.7534 15.2542V12.4893C48.7534 11.5018 48.2103 11.3537 47.7165 11.3537H47.3216V16.3404H47.7165V16.3898Z" fill="#1A1E27"/>
<path d="M68.2224 18.5624H70.3948C70.3948 19.2536 70.8392 19.4018 71.2342 19.4018C71.5798 19.4018 71.9748 19.2043 71.9748 18.7599C71.9748 18.4143 71.9254 18.1674 71.4316 17.4762L69.2592 14.4644C68.4198 13.2794 68.3211 12.5388 68.3211 11.8476C68.3211 10.317 69.5061 9.32949 71.1848 9.32949C72.8635 9.32949 74.0485 10.4651 74.0485 12.0944H71.876C71.876 11.4526 71.481 11.3044 71.1354 11.3044C70.7898 11.3044 70.4935 11.5019 70.4935 11.8969C70.4935 12.1932 70.691 12.5882 71.0367 13.0325L73.2091 16.0443C74.0485 17.2293 74.1966 17.9205 74.1966 18.8093C74.1966 20.3892 72.9622 21.4261 71.2342 21.4261C69.4567 21.3767 68.2224 20.2411 68.2224 18.5624Z" fill="#1A1E27"/>
<path d="M22.2401 0.603635C20.9971 0.270029 19.719 1.00728 19.3854 2.25033L16.3683 13.492C16.0347 14.735 16.772 16.0131 18.015 16.3468L29.2565 19.3638C30.4996 19.6974 31.7777 18.9601 32.1113 17.7171L35.1284 6.47543C35.4621 5.23237 34.7248 3.95423 33.4818 3.62062L22.2401 0.603635Z" fill="#1A1E27"/>
<path d="M12.3951 12.9701C11.4313 12.1813 10.0176 12.2898 9.18542 13.2164L1.63045 21.6279C0.742357 22.6167 0.859757 24.1468 1.8883 24.9885L10.726 32.2211C11.6898 33.0098 13.1034 32.9014 13.9356 31.9748L21.4906 23.5634C22.3787 22.5746 22.2614 21.0445 21.2328 20.2028L12.3951 12.9701Z" fill="#1A1E27"/>
<path d="M38.8855 22.2976C38.8855 21.0106 37.8421 19.9672 36.5551 19.9672H25.4515C24.1644 19.9672 23.1211 21.0106 23.1211 22.2976V33.4012C23.1211 34.6883 24.1644 35.7316 25.4515 35.7316H36.5551C37.8421 35.7316 38.8855 34.6883 38.8855 33.4012V22.2976Z" fill="#1A1E27"/>
</svg>

<svg xmlns="http://www.w3.org/2000/svg" width="140" height="36" fill="none" viewBox="0 0 140 36"><path fill="#1a1e27" d="M133.29 23.304h2.222v4.888h.445l1.086-4.889h2.37l-1.58 5.728 1.58 6.073h-2.37l-1.086-5.135h-.445v5.135h-2.222zM127.464 23.304h4.888v2.024h-2.715v2.913h2.073v1.827h-2.073v3.11h2.715v1.975h-4.888zM121.589 23.304h4.888v2.024h-2.716v2.913h2.074v1.827h-2.074v3.11h2.716v1.975h-4.888zM111.072 23.304h2.173l.889 7.603.888-7.603h1.926l.889 7.603.888-7.603h2.173l-1.876 11.8h-2.272l-.839-7.307-.839 7.307h-2.271zM101.287 23.46h2.074l1.58 5.876v-5.875h2.221v11.8h-2.073l-1.58-5.678v5.678h-2.222zM97.782 23.46h2.172v11.8h-2.172zM92.647 23.46h2.37l2.222 11.8h-2.173l-.345-1.974h-1.778l-.345 1.975h-2.173zm1.777 8.048-.592-4.443-.642 4.443zM84.055 23.46h2.222v4.889h1.333V23.46h2.173v11.8H87.61v-5.085h-1.333v5.086h-2.222zM70.873 23.46h2.222v4.889h.444l1.086-4.889h2.37l-1.53 5.728 1.58 6.073h-2.37l-1.087-5.135h-.444v5.135h-2.222v-11.8zM52.012 23.46h2.222v9.826h2.42v1.975H52.06zM45.1 23.46h2.715c1.728 0 2.913.84 2.913 2.321v1.777c0 .89-.296 1.432-.938 1.68.642.246 1.037.74 1.037 1.777v1.975c0 1.48-1.185 2.27-2.913 2.27H45.1zm2.666 4.987c.346 0 .84-.05.84-.592v-1.876c0-.494-.445-.593-.84-.593h-.444v3.061zm.05 4.839c.345 0 .839-.05.839-.593V30.62c0-.543-.445-.593-.84-.593h-.493v3.259zM57.098 32.545v-6.32c0-1.678 1.185-2.863 2.913-2.863s2.913 1.185 2.913 2.864v6.32c0 1.678-1.235 2.863-2.913 2.863-1.728 0-2.913-1.185-2.913-2.864m2.913.84c.296 0 .69-.099.69-.79v-6.468c0-.691-.394-.79-.69-.79-.297 0-.741.099-.741.79v6.517c.05.691.444.74.74.74M77.242 32.545v-6.369c0-1.678 1.185-2.863 2.913-2.863s2.913 1.185 2.913 2.863v.74h-2.172v-.79c0-.69-.395-.79-.692-.79s-.74.1-.74.79v6.518c0 .74.395.79.74.79.346 0 .692-.05.692-.79v-.84h2.221v.79c0 1.68-1.234 2.865-2.913 2.865-1.728-.05-2.962-1.235-2.962-2.914M64.06 32.545v-6.369c0-1.678 1.184-2.863 2.912-2.863s2.913 1.185 2.913 2.863v.74h-2.222v-.79c0-.69-.394-.79-.69-.79-.297 0-.741.1-.741.79v6.518c0 .74.395.79.74.79.346 0 .692-.05.692-.79v-.84h2.221v.79c0 1.68-1.234 2.865-2.913 2.865-1.728-.05-2.913-1.235-2.913-2.914M65.195 9.321h2.172V21.23h-2.172zM58.233 9.428h2.864c1.728 0 2.913 1.086 2.913 3.11v2.716c0 1.185-.395 2.025-1.136 2.568l1.185 3.456h-2.37l-.79-2.864h-.444v2.864h-2.222zm2.617 6.962c.444 0 1.037-.099 1.037-1.136V12.49c0-.987-.543-1.135-1.037-1.135h-.395v4.986h.395zM53.099 9.428h2.37l2.221 11.8h-2.172l-.296-1.975h-1.778l-.346 1.976h-2.172zm1.777 8.048-.593-4.493-.641 4.493zM45.1 9.428h2.863c1.728 0 2.913 1.086 2.913 3.11v2.815c0 1.975-1.184 3.061-2.913 3.061h-.641v2.864H45.1zm2.617 6.962c.444 0 1.036-.099 1.036-1.136V12.49c0-.987-.543-1.135-1.036-1.135h-.395v4.986h.395zM68.222 18.562h2.173c0 .692.444.84.84.84.345 0 .74-.198.74-.642 0-.346-.05-.593-.543-1.284l-2.173-3.012c-.84-1.185-.938-1.925-.938-2.616 0-1.531 1.185-2.519 2.864-2.519s2.864 1.136 2.864 2.765h-2.173c0-.641-.395-.79-.74-.79-.346 0-.642.198-.642.593 0 .296.197.691.543 1.136l2.172 3.011c.84 1.185.988 1.877.988 2.765 0 1.58-1.235 2.617-2.963 2.617-1.777-.05-3.012-1.185-3.012-2.864M22.24.604a2.33 2.33 0 0 0-2.855 1.646l-3.017 11.242a2.33 2.33 0 0 0 1.647 2.855l11.241 3.017a2.33 2.33 0 0 0 2.855-1.647l3.017-11.242a2.33 2.33 0 0 0-1.646-2.854zM12.395 12.97a2.33 2.33 0 0 0-3.21.246L1.63 21.628a2.33 2.33 0 0 0 .258 3.36l8.838 7.233a2.33 2.33 0 0 0 3.21-.246l7.555-8.412a2.33 2.33 0 0 0-.258-3.36zM38.886 22.298a2.33 2.33 0 0 0-2.33-2.33H25.451a2.33 2.33 0 0 0-2.33 2.33V33.4a2.33 2.33 0 0 0 2.33 2.33h11.103a2.33 2.33 0 0 0 2.33-2.33z"/></svg>
